X:1
T:Title
%%score [ 1 2 3 4 ]
L:1/8
Q:1/4=352
M:2/1
K:F
V:1 treble nm="MusicXML Part"
V:2 treble nm="MusicXML Part"
V:3 treble-8 nm="MusicXML Part"
V:4 bass nm="MusicXML Part"
V:1
 z16 | z16 | c16 | d8 A8 | c12 B4 | A8 A8 | G8 G8 | A4 c8 B2 A2 | B4 G4 A8 | G4 c8 d4- | %10
w: ||Ve-|ni- te|po- pu-|li ter-|rae, ve-|ni- * * *|* * te|po- * pu-|
 d2 c2 c8 =B4 | c8 c8- | c8 B8 | A4 A8 A4 | c8 d8 | G8 c8- | c4 c4 c8 | B16 | B12 A4 | F6 G2 A8 | %20
w: * li ter- *|rae, ve-|* ni-|te po- pu-|li ter-|rae et|* vi- de-|te|o- *|pe- * ra|
 G4 F8 E4 | F16 | z4 F4 F4 B4- | B4 G4 B4 c4 | G4 c4 d4 f4- | f2 e2 d2 c2 B2 c2 d4- | %26
w: De- * *|i.|Ex- ul- ta-|* te gau- di-|o et lae- ti-||
 d2 c2 c8 =B4 | c16 | z16 | z16 | z16 | z4 A4 B4 d4- | d2 c2 B2 A2 G2 A2 B4- | B4 A8 G4 | A16 | %35
w: * * * ti-|a,||||et lae- ti-||* * ti-|a,|
 z16 | z16 | z8 z4 c4- | c4 B4 _e4 d4- | d2 c2 c8 =B4 | c8 z4 c4 | f6 e2 d4 d4 | c4 B2 A2 B4 B4 | %43
w: ||qui-|* a fe- *|* cit De- *|us pro-|di- gi- a su-|* * * a ma-|
 A16 | e12 e4 | e8 f8 | e8 z4 c4- | c4 d8 B4 | c4 d6 c2 B2 A2 | G4 c6 B2 A2 G2 | F4 A4 d4 c4 | %51
w: gna,|au- fe-|rens bel-|la us-|* que ad|fi- * * * *|nem ter- * * *|rae, us- que ad|
 A4 d6 c2 B2 A2 | G4 c6 B2 A2 G2 | F4 c8 =B4 | c16 | z16 | z16 | z16 | z16 | f16 | d8 e8- | %61
w: fi- * * * *|nem ter- * * *||rae.|||||Ec-|ce prin-|
 e4 e4 e8 | f8 d8 | z4 c4 c4 c4 | f12 d4 | f4 e4 d6 c2 | d2 e2 f8 e4 | f8 f8 | d12 d4 | B8 c8 | %70
w: * ci- pes|ter- rae|con- ve- ne-|runt in|u- * * *||num et|ci- vi-|tas pa-|
 A4 A4 A4 A4 | B16 | G8 c8 | c4 c4 c8 | B16 | z16 | z16 | z16 | z16 | z4 G4 A4 c4- | c4 G4 A4 c4- | %81
w: cem con- du- ce|su-|o, con-|du- ce su-|o,|||||in- ce- dit|* ob- vi- *|
 c2 B2 A2 G2 A8 | G16 || G12 G4 | A8 B8 | c12 c4 | F8 G8 | A4 c4 f6 e2 | d4 c8 B4 | A6 G2 F4 G4 | %90
w: * * am * e-|is.|Ju- ve-|nes et|vir- gi-|nes, se-|nes cum ju- ni-|o- ri- *||
 A8 G8 | z16 | z16 | z16 | G12 G4 | A4 B4 c6 c2 | B8 B8 | G4 G4 G4 c4- | c2 B2 A2 G2 F4 c4 | %99
w: * bus,||||ju- ve-|nes et vir- gi-|nes, se-|* nes, se- *|* * * * nes cum|
 c4 c4 B4 B4 | A16 | z4 c4 e8 | d4 d4 c4 f4 | e4 d2 c2 e4 d4- | d4 c4 B4 A2 G2 | A4 F6 G2 A2 B2 | %106
w: ju- ni- o- ri-|bus|can- ta-|te can- ti- cum|no- * * * *||vum, can- * ti- *|
 c4 A4 B4 G2 A2 | B2 c2 d2 B2 c4 d4- | d4 c8 =B4 | c16 | A12 A4 | A4 c6 B2 A2 G2 | F4 F4 B4 A4 | %113
w: cum no- * * *|||vum,|psal- li-|te, psal- * * li-|te in ju- bi-|
 G4 F2 G2 A2 B2 A4- | A2 F2 G4 A4 G4- | G2 F2 F8 E4 | F16 | c16 | d16 | f16 | e16 | z8 c8- | %122
w: la- ti- * * * *|* * * o- *||ne.|A-|ve|Cae-|sar,|a-|
 c8 c8 | c8 c8 | B16 | B16 | A16 | z4 c4 c4 c4 | G4 G4 B6 c2 | d4 d4 A8 | z4 A8 A4 | %131
w: * ve|ma- jes-|tas|sa-|cra,|ple- na est|ter- ra glo- ri-|a tu- a,|glo- ri-|
 G4 c6 B2 G2 A2 | B4 G8 ^F4 | G16 | z16 | z16 | G16 | A8 B8 | G4 c6 B2 A4- | A2 G2 c8 =B4 | %140
w: a tu- * * *||a.|||Be-|ne- dic-|ta a- * *|* cta De- *|
 c4 G4 A6 G2 | A4 B4 A4 G4- | G2 F2 F4 E2 D2 E4 | F16 | G16 | A8 B8 | G4 c6 B2 A4- | A2 G2 c8 =B4 | %148
w: i in se- *|* * * cu-||la,|be-|ne- dic-|ta a- * *|* * cta De-|
 c4 G4 A6 G2 | A4 B4 A4 G4- | G2 F2 F8 E4 | F4 c8 A4 | c4 d6 c2 B2 A2 | B4 c4 G4 A4- | %154
w: i in se- *|* * * cu-||la, A- *|||
 A4 F4 A4 B4- | B2 A2 G2 F2 G4 F4 | E4 D4 F6 E2 | F4 G6 E2 G4 | A8 F4 B4- | B2 A2 A8 G2 F2 | E16 | %161
w: ||* men. A- *|||* men. A- * *||
 F16 |] %162
w: men.|
V:2
 F16 | G8 D8 | F12 E4 | D8 D8 | C8 E8 | F8 C8 | E12 D4 | E8 F8 | G8 F4 E4- | E2 D2 E2 F2 G8 | %10
w: Ve-|ni- te|po- pu-|li ter-|rae, ve-|ni- te|po- *|||* * * * pu-|
 A4 F4 G8 | z8 A8- | A8 G8 | F4 F8 F4 | F8 F8 | E8 G8- | G4 G4 A8 | G8 G8- | G4 F4 D4 F4- | %19
w: li ter- rae,|ve-|* ni-|te po- pu-|li ter-|rae et|* vi- de-|te o-|* pe- ra De-|
 F4 E2 D2 C8 | D8 C8 | z4 C4 C4 F4- | F4 D4 F4 G4 | D4 _E4 D4 C4- | C4 B,2 A,2 B,4 C4 | %25
w: |* i.|Ex- ul- ta-|* te gau- di-|o et lae- ti-||
 F6 E2 D4 B4- | B4 A4 G6 F2 | E8 z4 C4 | C4 F8 D4 | F4 G4 C4 E4 | G4 A8 G4- | G4 ^F4 G8- | %32
w: |* * * ti-|a, ex-|ul- ta- te|gau- di- o et|lae- ti- *|* ti- a,|
 G8 z4 G,4 | B,4 C4 D6 E2 | F4 E4 A,8 | z16 | z16 | z4 F8 E4 | A4 G8 F2 E2 | F4 E4 D8 | %40
w: * et|lae- * ti- *|* ti- a,|||qui- a|fe- * * *|* cit De-|
 C4 E4 A6 G2 | F4 A8 G2 F2 | E4 F4 D6 E2 | F16 | G12 G4 | G8 A8 | G16 | z16 | z16 | z4 G8 A4- | %50
w: us pro- di- gi-|a su- * *|* a ma- *|gna,|au- fe-|rens bel-|la|||us- que|
 A4 F4 G4 A4- | A2 G2 F2 E2 D4 G4- | G2 F2 E2 D2 C4 A4- | A4 G2 F2 G8 | E16 | z16 | z16 | G16 | %58
w: * ad fi- *|* * * * nem ter-|||rae.|||Ec-|
 E8 A8- | A4 A4 A8 | B8 G4 G4 | G4 G4 c8 | B4 A8 G4 | A8 z4 F4 | F4 F4 B8- | B4 G4 B8- | B4 A4 G8 | %67
w: ce prin-|* ci- pes|ter- rae con-|ve- ne- runt|in u- *|num, con-|ve- ne- runt|* in u-||
 F8 A8 | G12 G4 | G8 E8 | F4 F4 F4 F4 | F16 | E8 z4 G4 | G4 G4 A8 | G16 | z8 z4 C4 | D4 E4 F6 E2 | %77
w: num et|ci- vi-|tas pa-|cem con- du- ce|su-|o, con-|du- ce su-|o,|in-|ce- dit ob- *|
 D2 C2 F8 E2 D2 | E4 C8 =B,4 | C2 D2 E2 F2 E4 F4- | F4 E2 D2 E4 A4- | A2 G2 F2 E2 F8 | E16 || z16 | %84
w: vi- * * * *|am e- *||* * * is, e-||is.||
 z16 | C12 C4 | D8 E8 | F12 F4 | B,4 C4 D8 | z4 C4 D4 D4 | E12 E4 | F8 z8 | C12 C4 | D4 E4 F6 F2 | %94
w: |Ju- ve-|nes et|vir- gi-|nes, se- nes|cum ju- ni-|o- ri-|bus,|ju- ve-|nes et vir- gi-|
 E4 C2 D2 E2 F2 G2 E2 | F4 G4 A8 | G8 G8 | E4 E4 G4 G4 | A12 G2 F2 | E6 C2 D4 E4 | F8 z4 F4 | %101
w: nes, se- * * * * *||nes, se-|nes cum ju- ni-|o- * *|* * * ri-|bus can-|
 A8 G4 G4- | G2 F2 B4 A4 G2 F2 | A8 G6 A2 | B2 G2 A4 G4 C4 | F6 G2 A2 B2 A4- | A2 G2 E2 F2 G4 B4- | %107
w: ta- te can-|* ti- cum no- * *||* * * vum, can-|ta- * * * *|* * * * te can-|
 B4 G4 A4 A4- | A4 G2 F2 G8 | E16 | F12 F4 | F6 ED C4 A,4 | B,6 C2 D2 E2 F2 D2 | %113
w: * ti- cum no-||vum,|psal- li-|te * * * in|ju- * * * bi- *|
 E4 A,6 G,2 A,2 B,2 | C4 E4 F4 C4 | D4 D4 C8 | C16 | F16 | F16 | F16 | G16 | z8 G8- | G8 A8 | %123
w: la- ti- * * *|o- ne, ju- bi-|la- ti- o-|ne.|A-|ve|Cae-|sar,|a-|* ve|
 E8 F8 | G16 | G16 | F8 z4 F4 | F4 F4 C4 C4 | E6 F2 G4 G4 | D8 z4 F4 | F4 F4 C4 C4 | E6 F2 G4 G4 | %132
w: ma- jes-|tas|sa-|cra, ple-|na est ter- ra|glo- ri- a tu-|a, ple-|na est ter- ra|glo- ri- a tu-|
 D16 | D16 | E8 F8 | D8 G8- | G4 F4 E2 D2 G4- | G4 ^F4 G8 | z4 G4 F6 E2 | C4 G6 F2 G4 | E8 C8 | %141
w: a.|Be-|ne- dic-|ta a-|* cta De- * *|* * i|in se- *|* * * cu-|la, in|
 F12 E4 | D8 C8 | z4 C8 D4- | D4 E6 D2 G4- | G4 F4 G8 | z4 G4 F6 E2 | C4 G6 F2 G4 | E8 C8 | %149
w: se- *|cu- la,|be- ne-|* dic- * *|* * ta|a- * *|cta De- * *|i in|
 F12 E4 | D8 C8- | C8 z4 F4- | F4 D4 F4 G4- | G2 F2 E2 D2 E2 D2 C2 B,2 | A,2 G,2 B,4 A,4 G,4 | %155
w: se- *|cu- la,|* A-|||* * * * men.|
 D4 E6 D2 C2 B,2 | C4 F6 E2 D4- | D2 C2 B,2 A,2 B,4 C2 D2 | E2 C2 F6 E2 D4- | D2 C2 C8 B,4 | C16 | %161
w: A- * * * *||||* men. A- *||
 C16 |] %162
w: men.|
V:3
 z16 | z16 | z16 | z16 | c16 | d8 A8 | c12 B4 | A8 A8 | G8 c6 d2 | e2 f2 g6 f2 d4 | e4 c4 d8 | %11
w: ||||Ve-|ni- te|po- pu-|li ter-|rae, ve- ni-|te * po- pu- li|ter- * *|
 c8 f8- | f8 d8 | d4 d8 c4 | A4 c6 A2 B4 | c8 z4 e4- | e4 e4 f8 | d8 _e8- | e4 d4 B4 d4- | %19
w: rae, ve-|* ni-|te po- pu-|li ter- * *|rae et|* vi- de-|te o-|* pe- ra De-|
 d4 c2 B2 A8 | B8 G8 | F8 z4 F4 | F4 B8 G4 | B4 c4 G4 c4 | e4 f8 e2 d2 | c4 d8 g4- | %26
w: ||i. Ex-|ul- ta- te|gau- di- o et|lae- ti- * *||
 g2 f2 e4 d2 c2 d4 | c8 z4 A4 | A4 d8 B4 | d6 e2 f4 e4 | c4 c8 B4 | A4 d6 c2 B2 A2 | G4 G4 B4 d4- | %33
w: * * * * * ti-|a, ex-|ul- ta- te|gau- di- o et|lae- ti- *||* ti- * *|
 d2 e2 f8 e2 d2 | c16 | z4 c8 B4 | _e4 d8 c4- | c4 B4 c8 | F4 G6 A2 B2 c2 | d2 B2 c4 G4 G4 | %40
w: |a,|qui- a|fe- * *|* * cit|De- * * * *|* * * us pro-|
 c6 B2 A4 A4 | B4 A6 G2 A2 B2 | c4 d4 B8 | c16 | c12 c4 | c8 A6 B2 | c16 | f8 g8 | e4 f4 g6 f2 | %49
w: di- gi- a su-|a ma- * * *||gna,|au- fe-|rens bel- *|la|us- que|ad fi- * *|
 e2 d2 c6 d2 e4 | d4 f4 d4 e4 | f4 d4 g6 f2 | e2 d2 c4 e4 f4- | f2 e2 c4 d8 | c8 c8- | c8 A8 | %56
w: nem * ter- * *|rae, us- que ad|fi- * * *||* * nem ter-|rae. Ec-|* ce|
 d12 d4 | d8 e8 | c8 z4 A4 | A4 A4 d8 | B8 c6 d2 | e4 e4 e4 e4 | d4 f8 d4 | f6 e2 c4 c4 | d8 B8 | %65
w: prin- ci-|pes ter-|rae con-|ve- ne- runt|in u- *|num, con- ve- ne-|runt in *|u- * num, in|u- num|
 z16 | z8 c8- | c8 d8- | d4 d4 d8 | e8 c8 | z4 c4 c4 c4 | d16 | c8 z4 e4 | e4 e4 f8 | d8 z4 G4 | %75
w: |et|* ci-|* vi- tas|pa- cem|con- du- ce|su-|o, con-|du- ce su-|o, in-|
 A4 c4 F6 G2 | A2 B2 c4 B4 A4- | A2 G2 c8 =B4 | c2 d2 e2 c2 d8 | c16- | c16- | c16- | c16 || z16 | %84
w: ce- dit ob- *|vi- * * * *|* am e- *||is.|||||
 z16 | z16 | z16 | z16 | G12 G4 | A8 B8 | c12 c4 | F8 G8 | A4 c4 f6 e2 | d4 c8 =B4 | c8 z4 c4 | %95
w: ||||Ju- ve-|nes et|vir- gi-|nes, se-|nes cum ju- ni-|o- ri- *|bus, ju-|
 c4 d4 e4 f4 | d4 d8 G4- | G4 G4 c6 B2 | A4 F4 c6 B2 | c2 d2 e2 f2 g8 | c16 | z16 | z16 | z16 | %104
w: ve- nes et vir-|gi- nes, se-|* nes, se- *|nes cum ju- ni-|o- * * * ri-|bus||||
 z4 c4 e8 | d4 d6 c2 f4 | e4 d2 c2 e8 | d4 d4 e4 f4- | f2 e2 d2 c2 d8 | c8 c8- | c4 c4 c8 | %111
w: can- ta-|te can- ti- cum|no- * * *|vum, can- ta- te|* can- ti- cum no-|vum, psal-|* li- te|
 c8 f6 e2 | d4 c4 B4 c4 | G4 c4 f4 f4 | e2 d2 c2 B2 A2 F2 G4 | A4 B4 G8 | F16 | A16 | B16 | %119
w: in ju- *|* bi- la- ti-|o- ne, ju- bi-|la- * * * * * *|* ti- o-|ne.|A-|ve|
 A12 G2 F2 | c16 | z8 e8- | e8 f8 | c8 c8 | d16 | d16 | d16 | z8 z4 c4 | c4 c4 G4 G4 | %129
w: Cae- * *|sar,|a-|* ve|ma- jes-|tas|sa-|cra,|ple-|na est ter- ra|
 B6 c2 d4 d4 | A8 z4 c4- | c4 c4 G4 c4- | c4 B4 A8 | G16 | z16 | z16 | z8 c8- | c8 d8 | e8 c4 f4- | %139
w: glo- ri- a tu-|a, glo-|* ri- a tu-||a.|||Be-|* ne-|dic- ta a-|
 f4 e4 d8 | c8 z4 A4- | A4 d6 B2 c4 | A4 B4 G8 | F8 z8 | z8 c8- | c8 d8 | e8 c4 f4- | f4 e4 d8 | %148
w: * cta De-|i in|* se- * *|* * cu-|la,|be-|* ne-|dic- ta a-|* cta De-|
 c8 z4 A4- | A4 d6 B2 c4 | A4 B4 G8 | F16 | z16 | z4 c8 A4 | c4 d6 c2 B2 A2 | B4 c4 G4 A4- | %156
w: i in|* se- * *|* * cu-|la,||A- *||* * men. A-|
 A4 F4 A4 B4- | B2 A2 G2 F2 G4 E4- | E4 F6 G2 F4 | G4 A4 F8 | G16 | F16 |] %162
w: |||||men.|
V:4
 z16 | z16 | z16 | z16 | z16 | z16 | z16 | C16 | D8 A,8 | C12 B,4 | A,4 A,4 G,8 | z8 F,8- | %12
w: |||||||Ve-|ni- te|po- pu-|li ter- rae,|ve-|
 F,8 G,8 | D,8 F,8- | F,4 E,4 D,4 D,4 | C,8 z4 C4- | C4 C4 F,8 | G,16 | G,12 F,4 | %19
w: * ni-|te po-|* pu- li ter-|rae et|* vi- de-|te|o- pe-|
 D,4 F,6 E,2 D,2 C,2 | B,,8 C,8 | F,16 | z16 | z16 | z8 z4 F,4 | F,4 B,8 G,4 | B,4 C4 G,8 | %27
w: ra De- * * *||i.|||Ex-|ul- ta- te|gau- di- o,|
 z4 C,4 C,4 F,4- | F,4 D,4 F,4 G,4 | D,4 G,4 A,4 C4- | C2 B,2 A,2 G,2 F,4 G,4 | D,8 z4 G,4 | %32
w: ex- ul- ta-|* te gau- di-|o et lae- ti-|* * * * * ti-|a, et|
 B,4 D6 C2 B,2 A,2 | G,4 A,4 B,8 | A,8 z4 F,4- | F,4 E,4 A,4 G,4- | G,4 F,2 E,2 F,4 E,4 | D,8 C,8 | %38
w: lae- ti- * * *|* * ti-|a, qui-|* a fe- *|* * * * cit|De- us|
 z16 | z16 | z4 C,4 F,6 E,2 | D,4 D,6 E,2 F,2 G,2 | A,4 F,4 G,8 | F,16 | C,12 C,4 | C,8 F,8 | %46
w: ||pro- di- gi-|a su- * * *|* a ma-|gna,|au- fe-|rens bel-|
 C,16 | z16 | z16 | z8 C8 | D8 B,4 C4 | D6 C2 B,2 A,2 G,4 | C6 B,2 A,2 G,2 F,4- | F,2 G,2 A,4 G,8 | %54
w: la|||us-|* que ad|fi- * * * *||* * nem ter-|
 C,16 | F,16 | D,8 G,8- | G,4 G,4 G,8 | A,8 F,8 | z4 D,4 D,4 D,4 | G,8 C,8 | C8 A,4 A,4 | %62
w: rae.|Ec-|ce prin-|* ci- pes|ter- rae|con- ve- ne-|runt in|u- num, in|
 D2 C2 B,2 A,2 B,6 A,2 | F,16 | z16 | z16 | z16 | F,16 | G,12 G,4 | G,8 A,8 | F,4 F,4 F,4 F,4 | %71
w: u- * * * * *|num||||et|ci- vi-|tas pa-|cem con- du- ce|
 B,,16 | C,8 z4 C4 | C4 C4 F,8 | G,16 | z4 C,4 D,4 F,4- | F,4 C,4 D,4 F,4- | F,2 E,2 D,2 C,2 D,8 | %78
w: su-|o, con-|du- ce su-|o,|in- ce- *|* dit ob- vi-|* * am * e-|
 C,8 z4 G,4 | A,4 C8 F,4 | A,4 C6 B,2 A,2 G,2 | F,8 F,8 | C,16 || z16 | z16 | z16 | z16 | z16 | %88
w: is, in-|ce- * dit|ob- vi- * * *|am e-|is.||||||
 z16 | z16 | C,12 C,4 | D,8 E,8 | F,12 F,4 | B,,4 C,4 D,8 | z4 C,4 C6 B,2 | A,4 G,8 F,4 | G,8 G,8 | %97
w: ||Ju- ve-|nes et|vir- gi-|nes, se- nes|cum ju- *|ni- o- ri-|bus, cum|
 C,8 C,8 | C6 B,2 A,4 F,4 | C6 B,A, G,2 F,2 G,4 | F,16 | z16 | z16 | z16 | z16 | z8 z4 F,4 | %106
w: ju- ni-|o- * * *|* * * * * ri-|bus,|||||can-|
 A,8 G,4 G,4- | G,2 F,2 B,4 A,4 G,2 F,2 | A,8 G,8 | C,16 | F,12 F,4 | F,8 F,8 | B,6 A,2 G,4 F,4 | %113
w: ta- te can-|* ti- cum no- * *||vum,|psal- li-|te in|ju- bi- la- ti-|
 E,4 F,4 D,8 | C,4 C,4 F,4 E,4 | D,4 B,,4 C,8 | F,8 z8 | F,16 | B,,16 | D,16 | C,16 | z8 C8- | %122
w: o- * *|ne, in ju- bi-|la- ti- o-|ne.|A-|ve|Cae-|sar,|a-|
 C8 F,8 | A,8 A,8 | G,16 | G,16 | D,16 | z16 | z16 | z16 | z4 F,4 F,4 F,4 | C,4 C,4 E,6 F,2 | %132
w: * ve|ma- jes-|tas|sa-|cra,||||ple- na est|ter- ra glo- ri-|
 G,4 G,4 D,8 | z8 G,8- | G,8 A,8 | B,8 G,8 | C12 B,4 | A,8 G,8 | C6 B,2 A,2 G,2 F,4- | %139
w: a tu- a.|Be-|* ne-|dic- ta|a- cta|De- i|in * se- * *|
 F,2 E,2 C,4 G,8 | C,4 C,4 F,6 E,2 | D,2 C,2 B,,4 D,4 E,4 | F,4 B,,4 C,8 | F,6 G,2 A,4 B,4 | %144
w: * * * cu-|la, in se- *||* cu- la,|be- ne- dic- ta|
 G,4 C8 B,4 | A,8 G,8 | C6 B,2 A,2 G,2 F,4- | F,2 E,2 C,4 G,8 | C,4 C,4 F,6 E,2 | %149
w: a- * cta|De- i|in * se- * *|* * * cu-|la, in se- *|
 D,2 C,2 B,,4 D,4 E,4 | F,4 B,,4 C,8 | F,16 | z16 | z8 z4 F,4- | F,4 D,4 F,4 G,4- | %155
w: |* * cu-|la,||A-||
 G,2 F,2 E,2 D,2 E,4 F,4 | C,4 D,8 B,,4 | D,4 _E,6 D,2 C,2 B,,2 | C,4 A,,4 B,,8- | B,,4 C,4 D,8 | %160
w: |men. A- *||||
 C,16 | F,16 |] %162
w: |men.|

